website/static/img/beamery.svg

<?xml version="1.0" encoding="UTF-8" standalone="no"?>
<svg width="300px" height="255px" viewBox="0 0 300 255" version="1.1" xmlns="http://www.w3.org/2000/svg" xmlns:xlink="http://www.w3.org/1999/xlink">
    <!-- Generator: Sketch 3.7.2 (28276) - http://www.bohemiancoding.com/sketch -->
    <title>beamery logo</title>
    <desc>Beamery Company Logo</desc>
    <defs></defs>
    <g id="Page-1" stroke="none" stroke-width="1" fill="none" fill-rule="evenodd">
        <g id="brandguide" transform="translate(-450.000000, -1073.000000)">
            <g id="logo-vertical-secondary-section" transform="translate(0.000000, 800.000000)">
                <g id="beamery-vertical-secondary" transform="translate(450.000000, 273.000000)">
                    <path d="M184.83314,239.055635 C183.466661,239.055635 182.415029,237.976048 182.389327,236.545632 C182.392183,236.420845 182.383615,236.312458 182.361483,236.207637 L182.374335,216.103369 C182.372906,213.265354 181.426224,210.899391 179.558557,209.071795 C178.008597,207.553671 176.056686,206.718667 173.913442,206.658769 C172.798267,206.629533 171.687378,206.618837 170.570777,206.618837 L166.175768,206.633812 C165.935885,206.633812 165.688862,206.710823 165.580343,206.755747 C165.114853,206.936866 164.607243,207.441719 164.607243,208.117709 L164.607243,236.374495 C164.607243,237.6024 163.952561,238.570748 162.899501,238.903751 C162.591793,239.002155 162.28694,239.051356 161.992084,239.051356 C160.60847,239.051356 159.557552,237.951091 159.54827,236.491439 C159.53542,234.519803 159.538275,231.802296 159.541845,229.828521 L159.543988,208.099882 C159.543988,207.304097 158.896444,206.658056 158.100402,206.658056 L143.388258,206.658056 C142.592929,206.658056 141.946101,207.304097 141.946101,208.099882 L141.944672,236.370217 C141.943959,237.61167 141.278567,238.588575 140.210514,238.920865 C139.920655,239.009998 139.628654,239.055635 139.34522,239.055635 C137.967317,239.055635 136.909973,237.966778 136.8857,236.522814 C136.873563,235.802614 136.876418,234.338683 136.879988,233.617057 L136.882844,204.329173 C136.882844,203.048501 137.611776,202.030951 138.784064,201.675843 C138.99539,201.61024 139.248124,201.576726 139.53727,201.576726 C146.045539,201.572448 152.544527,201.568169 159.046372,201.568169 C164.099632,201.568169 169.15575,201.571735 174.208298,201.576726 C176.764199,201.580292 178.949568,202.120085 180.888627,203.228907 C182.564955,204.182994 183.946429,205.518572 184.998775,207.19785 C186.629412,209.807682 187.426883,212.839652 187.435448,216.466321 C187.449015,222.192265 187.449727,231.31527 187.446157,237.068311 C187.275526,237.914011 186.634408,238.624941 185.736986,238.908029 C185.434991,239.006433 185.130853,239.055635 184.83314,239.055635 Z M213.86762,239.266703 C205.977164,239.266703 199.32682,234.947644 196.079825,227.712132 C192.919216,220.674141 194.702635,211.730829 200.319195,206.446988 C204.140197,202.851694 208.602317,201.029089 213.579901,201.029089 C214.685793,201.029089 215.833807,201.118936 216.994673,201.292925 C225.054331,202.499438 231.219911,208.725243 232.336512,216.786489 C232.421471,217.401154 232.398624,218.089979 232.269402,218.775238 C232.008099,220.160018 231.394112,220.652036 229.921969,220.654175 L201.164499,220.656314 C200.72257,220.656314 200.310627,220.852408 200.036474,221.196108 C199.759467,221.543372 199.657374,221.987614 199.756611,222.415456 C201.078112,228.295423 204.173752,232.058288 209.219876,233.917259 C210.709867,234.466322 212.248404,234.744419 213.794082,234.744419 C216.253604,234.744419 218.81236,234.034203 221.398964,232.633022 C223.146686,231.688919 224.775182,230.354053 226.378689,228.553554 C226.849175,228.028022 227.539554,227.726394 228.27491,227.726394 C228.603324,227.726394 228.916742,227.786292 229.207316,227.905374 C230.091172,228.264761 230.711586,229.209578 230.684455,230.152968 C230.665893,230.749093 230.424581,231.305287 229.946242,231.851498 C226.792773,235.442514 223.037455,237.749292 218.782377,238.706231 C217.141029,239.078453 215.486833,239.266703 213.86762,239.266703 Z M213.727686,205.410898 C209.432628,205.410898 206.068548,206.720806 203.445536,209.41692 C201.832747,211.072667 200.842513,213.047868 200.503391,215.284765 C200.438423,215.699058 200.559078,216.121195 200.836088,216.44065 C201.109526,216.759392 201.509332,216.941938 201.930555,216.941938 L225.35133,216.941938 C225.783264,216.941938 226.18878,216.752975 226.462221,216.422824 C226.7378,216.093386 226.850603,215.65984 226.770641,215.233424 C226.195208,212.189333 224.80588,209.865441 222.524131,208.131257 C220.204543,206.363559 217.452306,205.475075 214.109643,205.413751 L213.727686,205.410898 Z M64.6686104,239.263138 C59.0606183,239.263138 54.2143991,237.037649 50.2641736,232.650136 C47.7661005,229.872732 46.2611168,226.56837 45.7913447,222.830462 C44.9296201,215.975729 47.0928559,210.207001 52.2182252,205.684717 C55.7272361,202.587858 59.9159173,201.016967 64.6686104,201.016967 C65.2026369,201.016967 65.742375,201.037646 66.2885383,201.074726 C71.1376132,201.421277 75.2127781,203.260282 78.3990886,206.5404 C81.5711204,209.80483 83.2667259,213.574113 83.4366433,217.744854 C83.4801937,218.785221 83.2874301,219.536083 82.865492,219.973907 C82.430703,220.427419 81.6567931,220.656314 80.5616102,220.656314 L52.2225087,220.656314 C51.7820084,220.656314 51.3714932,220.852408 51.0966267,221.196108 C50.8217602,221.53125 50.7168111,221.974066 50.812479,222.406899 C52.1218434,228.317528 55.2403297,232.093229 60.3478506,233.95006 C61.8121398,234.480584 63.3249769,234.750124 64.8456673,234.750124 C67.3059016,234.750124 69.8625178,234.04062 72.443408,232.640866 C74.2011261,231.688919 75.8303355,230.354053 77.4259896,228.562111 C77.8979032,228.031588 78.5925661,227.726394 79.3293513,227.726394 C79.6541937,227.726394 79.966899,227.785579 80.2574722,227.902522 C81.1813094,228.274031 81.8060063,229.181055 81.7103384,230.012493 C81.6325191,230.676361 81.3847821,231.327393 81.0642234,231.711737 C77.9457371,235.447506 74.1525783,237.800633 69.7875544,238.707657 C68.0219826,239.076314 66.2999613,239.263138 64.6686104,239.263138 Z M64.7871243,205.32533 C62.5553505,205.32533 60.3157232,205.828044 58.1317834,206.819923 C54.5535202,208.44786 52.3374529,211.265195 51.5456944,215.194919 C51.4585938,215.617056 51.5656846,216.053454 51.8398374,216.391449 C52.1182738,216.730156 52.525933,216.921972 52.9600081,216.921972 L76.3943474,216.921972 C76.8291364,216.921972 77.2353678,216.730869 77.5088064,216.395727 C77.7815311,216.071994 77.8936197,215.639874 77.8136585,215.212032 C77.0740174,211.290153 74.9636132,208.488504 71.5409889,206.884099 C69.3384865,205.850149 67.066018,205.32533 64.7871243,205.32533 Z M264.309563,254.996293 C261.251047,254.996293 258.140414,254.250423 255.066193,252.779361 C253.663301,252.109077 252.912238,251.355363 252.628805,250.335674 C252.34894,249.326681 252.619523,248.370456 253.33489,247.842072 C253.853924,247.456301 254.31156,247.269477 254.737782,247.269477 C255.019786,247.269477 255.322497,247.355758 255.638059,247.525469 C257.796295,248.68278 260.405743,249.885014 263.412141,250.022637 C263.708426,250.034046 263.999,250.041889 264.286002,250.041889 C268.840222,250.040463 272.582691,248.342646 275.411318,244.994074 C276.687126,243.487359 277.428197,241.777419 278.14499,240.124525 C278.444844,239.427144 278.729706,238.766129 279.053835,238.12294 C279.488625,237.256562 279.868439,236.405157 280.320363,235.382616 C280.59737,234.754402 280.875095,234.129754 281.16781,233.510097 C281.570471,232.656553 281.526207,231.80087 281.038585,230.967293 C279.831314,228.916506 278.636181,226.860015 277.441046,224.802811 L269.502757,211.134704 C269.188624,210.590632 268.883057,210.038717 268.578205,209.486088 C267.922809,208.29455 267.179599,206.943997 266.307879,205.701831 C265.821686,205.013719 265.642487,204.213656 265.802409,203.448532 C265.955193,202.712645 266.390697,202.07944 266.99683,201.707931 C267.409488,201.458357 267.889254,201.325726 268.3833,201.325726 C269.455638,201.325726 270.465861,201.917573 271.020591,202.86952 C273.426566,206.980363 275.821833,211.100476 278.217099,215.21845 L282.619962,222.788391 C282.74276,223.001598 282.876266,223.212667 283.024766,223.447267 L283.29963,223.879386 C283.555935,224.289401 284.002148,224.541114 284.490482,224.551098 C284.999521,224.551098 285.443591,224.320776 285.714888,223.917892 C286.36957,222.960953 286.760095,222.001163 287.139195,221.074173 C287.273416,220.740457 287.406923,220.415297 287.551138,220.095129 C289.106099,216.642449 290.618222,213.169803 292.131772,209.696443 L294.008719,205.393785 C294.379253,204.548085 294.757641,203.70595 295.146738,202.868807 C295.617224,201.859815 296.553911,201.206643 297.533437,201.206643 C297.740479,201.206643 297.946094,201.235166 298.142427,201.292212 C299.33185,201.629493 300.153593,202.957941 299.975822,204.253587 C299.911567,204.708525 299.669543,205.205535 299.413953,205.732493 C299.30115,205.957822 299.203339,206.158908 299.110527,206.36142 C296.418978,212.282745 293.711006,218.187669 290.998037,224.095446 L288.19297,230.18363 C286.637297,233.552168 285.08091,236.922132 283.548796,240.300653 L283.17969,241.122822 C282.208018,243.2877 281.20422,245.526023 279.742786,247.397829 C277.348234,250.466166 274.409661,252.628191 271.006312,253.821868 C268.789531,254.601253 266.537053,254.996293 264.309563,254.996293 Z M111.142481,200.671129 C99.0562047,199.749843 89.0496331,209.968123 90.3540001,222.105271 C91.3420919,231.311705 98.9883805,238.640629 108.235321,239.292374 C114.327364,239.720928 119.868245,237.308616 123.697101,233.263375 C123.906999,233.04161 124.274678,233.179946 124.274678,233.485139 L124.274678,236.83799 C124.274678,238.075878 125.166388,239.205379 126.400075,239.32874 C127.818672,239.471354 129.015234,238.361819 129.015234,236.973473 L129.015234,220.453803 C129.015234,210.259055 121.319684,201.446948 111.142481,200.671129 Z M109.627502,234.606084 C101.551422,234.604658 94.9803259,228.042997 94.9803259,219.977473 C94.9803259,211.910523 101.551422,205.348861 109.627502,205.348861 C117.704296,205.349575 124.274678,211.911236 124.274678,219.977473 C124.274678,228.04371 117.704296,234.606084 109.627502,234.606084 Z M20.7856251,200.663285 C15.2390316,200.271097 10.1493594,202.234176 6.3918976,205.64122 C5.75506381,206.218093 4.74127011,205.798095 4.74127011,204.93956 L4.74127011,184.503714 C4.74127011,183.265113 3.84956011,182.136325 2.61587332,182.012251 C1.19727607,181.87035 -3.55271368e-15,182.979886 -3.55271368e-15,184.367518 L-3.55271368e-15,219.97676 C-3.55271368e-15,230.652829 8.69720716,239.340862 19.3870184,239.341576 L19.3877323,239.341576 C30.8057614,239.341576 39.9498945,229.432768 38.652667,217.772663 C37.6317338,208.599743 30.0025798,201.31503 20.7856251,200.663285 Z M19.3884462,234.606084 C11.3109385,234.605371 4.74127011,228.042283 4.74127011,219.97676 C4.74127011,211.911236 11.3116524,205.348861 19.3877323,205.348861 C27.4638122,205.348861 34.0341945,211.911236 34.0341945,219.977473 C34.0341945,228.044423 27.4638122,234.606084 19.3884462,234.606084 Z M241.769077,238.349697 C240.371183,238.349697 239.23816,237.218056 239.23816,235.821154 L239.23816,214.673665 C239.23816,207.513739 245.068902,201.690104 252.237565,201.690104 L257.754174,201.690104 C259.15278,201.690104 260.285803,202.821745 260.285803,204.218647 C260.285803,205.614836 259.15278,206.746477 257.754174,206.746477 L252.237565,206.746477 C247.861833,206.746477 244.300705,210.303265 244.300705,214.673665 L244.300705,235.821154 C244.300705,237.218056 243.167682,238.349697 241.769077,238.349697 Z" id="Shape" fill="#1E2E44"></path>
                    <path d="M150.36809,0 L150.36809,0 C110.015554,0 77,33.411349 77,74.2501785 C77,108.782159 100.608363,137.999497 132.295925,146.20104 C137.905127,147.652407 143.337033,143.206826 143.337033,137.346822 L143.337033,109.382058 C143.337033,102.755028 135.419488,99.4371145 130.792374,104.12547 L130.67939,104.238061 C128.202441,106.748486 124.211512,107.392365 121.355633,105.334063 C117.72799,102.721602 117.420327,97.5336247 120.434382,94.4848739 L120.853291,94.0608991 C125.480405,89.376062 122.202141,81.3662755 115.656044,81.3662755 L98.6302807,81.3662755 C95.1243118,81.3662755 91.8547395,78.9649226 91.2741775,75.4658084 C90.5354384,71.0237456 93.9423293,67.1358415 98.2026811,67.1358415 L115.657782,67.1358415 C122.20388,67.1376004 125.482143,59.1278139 120.853291,54.4429769 L108.812713,42.2567714 C106.334026,39.7481055 105.699579,35.7106662 107.733285,32.822006 C110.316264,29.1522464 115.440506,28.8408622 118.452823,31.8896126 L130.79585,44.3819246 C135.424702,49.0667615 143.338771,45.7488485 143.338771,39.1235778 L143.338771,38.6274742 C143.338771,34.3155946 147.178476,30.8674984 151.569193,31.6151723 C155.026492,32.202756 157.39741,35.5118729 157.39741,39.0602454 L157.39741,39.1235778 C157.39741,45.7488485 165.311479,49.0667615 169.942069,44.3819246 L181.982647,32.1974783 C184.461334,29.6888124 188.450525,29.0466924 191.304666,31.1049948 C194.932309,33.7192147 195.238234,38.905433 192.225917,41.9541834 L179.88289,54.4447361 C175.254038,59.1295728 178.532301,67.1393598 185.078399,67.1393598 L183.075981,67.1393598 C186.545448,67.1393598 189.790685,69.4808984 190.412964,72.9342727 C191.222969,77.4203164 187.79522,81.3680344 183.501843,81.3680344 L185.078399,81.3680344 C178.532301,81.3680344 175.254038,89.3778214 179.88289,94.0626586 L193.355753,107.698471 C195.83444,110.207138 196.468886,114.244577 194.435181,117.133237 C191.852201,120.802996 186.72796,121.114381 183.715642,118.06563 L169.940331,104.123711 C165.311479,99.4388739 157.39741,102.756786 157.39741,109.382058 L157.39741,137.346822 C157.39741,143.206826 162.829315,147.652407 168.438518,146.20104 C200.126079,138.003016 223.736181,108.787437 223.736181,74.2554563 C223.736181,33.4166267 190.720627,0.00175923186 150.36809,0 L150.36809,0 L150.36809,0 Z M157.338311,15.2085674 C157.338311,19.105268 154.218224,22.2630908 150.36809,22.2630908 C146.517956,22.2630908 143.39787,19.105268 143.39787,15.2085674 C143.39787,11.3118668 146.517956,8.15404395 150.36809,8.15404395 C154.218224,8.15404395 157.338311,11.313626 157.338311,15.2085674 L157.338311,15.2085674 L157.338311,15.2085674 Z M214.885217,74.7832264 C214.885217,78.6799268 211.765131,81.8377496 207.914996,81.8377496 C204.064862,81.8377496 200.944776,78.6781679 200.944776,74.7832264 C200.944776,70.8865255 204.064862,67.7287027 207.914996,67.7287027 C211.765131,67.7287027 214.885217,70.8865255 214.885217,74.7832264 L214.885217,74.7832264 L214.885217,74.7832264 Z M116.335684,114.698459 C116.335684,118.5934 113.213859,121.752982 109.363725,121.752982 C105.515329,121.751223 102.393505,118.5934 102.393505,114.6967 C102.393505,110.801758 105.515329,107.642176 109.365463,107.642176 C113.213859,107.643935 116.335684,110.801758 116.335684,114.698459 L116.335684,114.698459 L116.335684,114.698459 Z" id="Shape" fill="#31B3A4"></path>
                </g>
            </g>
        </g>
    </g>
</svg>

<svg width="300" height="255" xmlns="http://www.w3.org/2000/svg"><g fill="none" fill-rule="evenodd"><path d="M184.833 239.056c-1.366 0-2.418-1.08-2.444-2.51a1.447 1.447 0 0 0-.028-.338l.013-20.105c-.001-2.838-.948-5.204-2.815-7.031-1.55-1.518-3.502-2.353-5.646-2.413-1.115-.03-2.226-.04-3.342-.04l-4.395.015c-.24 0-.487.077-.596.122-.465.18-.973.686-.973 1.362v28.256c0 1.228-.654 2.197-1.707 2.53a2.98 2.98 0 0 1-.908.147c-1.384 0-2.434-1.1-2.444-2.56-.013-1.971-.01-4.689-.006-6.662l.002-21.73c0-.795-.648-1.44-1.444-1.44h-14.712c-.795 0-1.442.645-1.442 1.44l-.001 28.271c-.001 1.242-.666 2.219-1.734 2.55-.29.09-.582.136-.866.136-1.378 0-2.435-1.09-2.46-2.533-.011-.72-.009-2.184-.005-2.906l.003-29.288c0-1.28.729-2.298 1.901-2.653.211-.066.464-.1.753-.1 6.509-.004 13.008-.008 19.51-.008 5.053 0 10.109.004 15.161.009 2.556.003 4.742.543 6.68 1.652 1.677.954 3.058 2.29 4.11 3.969 1.631 2.61 2.429 5.642 2.437 9.268.014 5.726.015 14.85.011 20.602-.17.846-.812 1.557-1.709 1.84a2.917 2.917 0 0 1-.904.148zm29.035.21c-7.89 0-14.541-4.318-17.788-11.554-3.16-7.038-1.377-15.981 4.24-21.265 3.82-3.595 8.282-5.418 13.26-5.418 1.106 0 2.254.09 3.415.264 8.06 1.206 14.225 7.432 15.342 15.493a6.27 6.27 0 0 1-.068 1.99c-.26 1.384-.875 1.876-2.347 1.878l-28.758.002c-.441 0-.853.196-1.128.54-.277.347-.379.792-.28 1.22 1.322 5.88 4.418 9.642 9.464 11.501 1.49.55 3.028.827 4.574.827 2.46 0 5.018-.71 7.605-2.111 1.748-.944 3.376-2.279 4.98-4.08a2.538 2.538 0 0 1 1.896-.827c.328 0 .642.06.932.18.884.359 1.505 1.304 1.477 2.247-.018.596-.26 1.152-.738 1.698-3.153 3.592-6.909 5.898-11.164 6.855-1.641.372-3.295.56-4.914.56zm-.14-33.855c-4.295 0-7.66 1.31-10.282 4.006-1.613 1.656-2.603 3.63-2.943 5.868a1.44 1.44 0 0 0 1.427 1.657h23.421c.432 0 .838-.189 1.111-.52.276-.329.389-.762.309-1.189-.576-3.044-1.965-5.368-4.247-7.102-2.32-1.767-5.072-2.656-8.414-2.717l-.382-.003zm-149.06 33.852c-5.607 0-10.454-2.225-14.404-6.613-2.498-2.777-4.003-6.082-4.473-9.82-.861-6.854 1.302-12.623 6.427-17.145 3.51-3.097 7.698-4.668 12.45-4.668.535 0 1.074.02 1.62.058 4.85.346 8.925 2.185 12.111 5.465 3.172 3.265 4.868 7.034 5.038 11.205.043 1.04-.15 1.791-.572 2.229-.434.453-1.208.682-2.303.682h-28.34c-.44 0-.85.196-1.125.54-.275.335-.38.778-.285 1.21 1.31 5.912 4.428 9.687 9.536 11.544 1.464.53 2.977.8 4.498.8 2.46 0 5.017-.71 7.597-2.11 1.758-.951 3.387-2.286 4.983-4.078a2.543 2.543 0 0 1 1.903-.836c.325 0 .638.06.928.177.924.371 1.549 1.278 1.453 2.11-.077.663-.325 1.314-.646 1.699-3.118 3.736-6.911 6.089-11.276 6.996-1.766.368-3.488.555-5.12.555zm.12-33.938c-2.233 0-4.472.503-6.656 1.495-3.578 1.628-5.795 4.445-6.586 8.375-.087.422.02.858.294 1.196.278.34.686.531 1.12.531h23.434c.435 0 .841-.191 1.115-.526.273-.324.385-.756.305-1.184-.74-3.922-2.85-6.723-6.273-8.328-2.203-1.034-4.475-1.559-6.754-1.559zm199.522 49.671c-3.059 0-6.17-.746-9.244-2.217-1.403-.67-2.154-1.424-2.437-2.443-.28-1.01-.01-1.966.706-2.494.519-.386.977-.573 1.403-.573.282 0 .584.087.9.256 2.158 1.158 4.768 2.36 7.774 2.498.296.011.587.019.874.019 4.554-.002 8.297-1.7 11.125-5.048 1.276-1.507 2.017-3.217 2.734-4.87.3-.697.585-1.358.909-2.001.435-.866.814-1.718 1.266-2.74.277-.629.555-1.253.848-1.873.402-.853.358-1.71-.13-2.543-1.207-2.05-2.402-4.107-3.597-6.164l-7.938-13.668a96.978 96.978 0 0 1-.925-1.649c-.655-1.191-1.398-2.542-2.27-3.784-.486-.688-.666-1.488-.506-2.253.153-.736.589-1.37 1.195-1.741.412-.25.892-.382 1.386-.382 1.073 0 2.083.592 2.638 1.544 2.406 4.11 4.8 8.23 7.196 12.348l4.403 7.57c.123.214.256.425.405.66l.275.431a1.443 1.443 0 0 0 2.415.039c.655-.957 1.045-1.917 1.424-2.844.134-.334.268-.659.412-.979 1.555-3.453 3.067-6.925 4.58-10.399l1.878-4.302c.37-.846.749-1.688 1.138-2.525.47-1.01 1.407-1.662 2.386-1.662.207 0 .413.028.61.085 1.189.337 2.01 1.666 1.833 2.962-.064.455-.306.952-.562 1.478-.113.226-.21.427-.303.63-2.692 5.92-5.4 11.826-8.113 17.733l-2.805 6.089c-1.556 3.368-3.112 6.738-4.644 10.117l-.37.822c-.971 2.165-1.975 4.403-3.436 6.275-2.395 3.068-5.333 5.23-8.737 6.424-2.216.78-4.469 1.174-6.696 1.174zm-153.168-54.325c-12.086-.921-22.092 9.297-20.788 21.434.988 9.207 8.634 16.536 17.881 17.187 6.092.429 11.633-1.983 15.462-6.029.21-.221.578-.083.578.222v3.353c0 1.238.891 2.367 2.125 2.49a2.37 2.37 0 0 0 2.615-2.355v-16.52c0-10.194-7.695-19.006-17.873-19.782zm-1.514 33.935c-8.077-.001-14.648-6.563-14.648-14.629 0-8.066 6.571-14.628 14.648-14.628 8.076 0 14.647 6.562 14.647 14.628 0 8.067-6.57 14.63-14.647 14.63zm-88.842-33.943c-5.547-.392-10.637 1.571-14.394 4.978-.637.577-1.65.157-1.65-.701v-20.436c0-1.239-.892-2.368-2.126-2.492A2.371 2.371 0 0 0 0 184.368v35.609c0 10.676 8.697 19.364 19.387 19.365 11.419 0 20.563-9.91 19.266-21.57-1.021-9.172-8.65-16.457-17.867-17.109zm-1.398 33.943c-8.077 0-14.647-6.564-14.647-14.63 0-8.065 6.57-14.627 14.647-14.627 8.076 0 14.646 6.562 14.646 14.628 0 8.067-6.57 14.63-14.646 14.63zm222.381 3.744a2.53 2.53 0 0 1-2.53-2.529v-21.147c0-7.16 5.83-12.984 12.999-12.984h5.516a2.53 2.53 0 0 1 0 5.056h-5.516c-4.376 0-7.937 3.557-7.937 7.928v21.147a2.53 2.53 0 0 1-2.532 2.529z" fill="#1E2E44"/><path d="M150.368 0C110.016 0 77 33.411 77 74.25c0 34.532 23.608 63.75 55.296 71.951 5.61 1.451 11.041-2.994 11.041-8.854v-27.965c0-6.627-7.918-9.945-12.545-5.257l-.113.113c-2.477 2.51-6.467 3.154-9.323 1.096-3.628-2.612-3.936-7.8-.922-10.85l.42-.423c4.626-4.685 1.348-12.695-5.198-12.695H98.63c-3.506 0-6.775-2.401-7.356-5.9-.739-4.442 2.668-8.33 6.929-8.33h17.455c6.546.002 9.824-8.008 5.195-12.693l-12.04-12.186c-2.479-2.509-3.113-6.546-1.08-9.435a6.996 6.996 0 0 1 10.72-.932l12.343 12.492c4.629 4.685 12.543 1.367 12.543-5.258v-.497c0-4.311 3.84-7.76 8.23-7.012 3.457.588 5.828 3.897 5.828 7.445v.064c0 6.625 7.914 9.943 12.545 5.258l12.04-12.185c2.48-2.508 6.469-3.15 9.323-1.092 3.627 2.614 3.933 7.8.92 10.85l-12.342 12.49c-4.629 4.685-1.35 12.694 5.195 12.694h-2.002c3.47 0 6.715 2.342 7.337 5.795.81 4.486-2.618 8.434-6.911 8.434h1.576c-6.546 0-9.824 8.01-5.195 12.695l13.473 13.635c2.478 2.51 3.113 6.547 1.08 9.435a6.996 6.996 0 0 1-10.72.933l-13.776-13.942c-4.629-4.685-12.543-1.367-12.543 5.258v27.965c0 5.86 5.432 10.305 11.042 8.854 31.687-8.198 55.297-37.414 55.297-71.946 0-40.838-33.015-74.253-73.368-74.255zm6.97 15.209c0 3.896-3.12 7.054-6.97 7.054-3.85 0-6.97-3.158-6.97-7.054 0-3.897 3.12-7.055 6.97-7.055 3.85 0 6.97 3.16 6.97 7.055zm57.547 59.574c0 3.897-3.12 7.055-6.97 7.055-3.85 0-6.97-3.16-6.97-7.055 0-3.896 3.12-7.054 6.97-7.054 3.85 0 6.97 3.158 6.97 7.054zm-98.55 39.915c0 3.895-3.121 7.055-6.971 7.055-3.849-.002-6.97-3.16-6.97-7.056 0-3.895 3.121-7.055 6.971-7.055 3.849.002 6.97 3.16 6.97 7.056z" fill="#31B3A4"/></g></svg>
